X:159
T:St. Bride's Bells. TWC.159
L:1/8
C:(Old English)
B:T.Wilson,Companion to the Ballroom,1816
Z:vmp.Mike Hicken 2015 www.village-music-project.org.uk
M:2/4
Q:1/4=130
K:A
"_Allegro"\
a|gfed|cBAa|gfed|cBAa|gfed|cBAa|g/a/b B^d|e2E :|
a|fdBg|ecAa|fdBg|e2Aa|fdBg|ecAc|dfBg|a2A :|

